images/fingerprint.svg

<svg enable-background="new 0 0 460 460" height="512" viewBox="0 0 460 460" width="512" xmlns="http://www.w3.org/2000/svg"><g fill="#eceff1"><path d="m230 0c-90.981 0-165 74.019-165 165v130c0 90.981 74.019 165 165 165s165-74.019 165-165v-130c0-90.981-74.019-165-165-165zm135 295c0 74.44-60.56 135-135 135s-135-60.56-135-135v-130c0-74.439 60.561-135 135-135s135 60.561 135 135z"/><path d="m155 165c0-15.219 4.553-29.879 13.168-42.396l-24.713-17.008c-12.073 17.543-18.455 38.084-18.455 59.404v66h30z"/><path d="m300.012 86.803c-7.042-6.31-14.888-11.64-23.32-15.841-14.599-7.274-30.308-10.962-46.692-10.962-22.382 0-43.76 6.975-61.825 20.171l17.696 24.225c12.893-9.418 28.152-14.396 44.129-14.396 11.699 0 22.907 2.629 33.313 7.813 6.027 3.003 11.639 6.816 16.679 11.332 15.893 14.243 25.008 34.602 25.008 55.855v35h30v-35c0-29.769-12.752-58.271-34.988-78.197z"/><path d="m269.006 358.822c-11.753 7.277-25.284 11.137-39.145 11.175-41.292-.077-74.861-33.689-74.861-74.997v-35h-30v35c0 57.782 46.917 104.809 104.655 104.996v.004c.049 0 .097-.002.145-.002.067 0 .133.002.199.002v-.006c19.398-.063 38.339-5.474 54.799-15.667z"/><path d="m305 295c0 8.271-6.728 15-15 15s-15-6.729-15-15v-130c0-24.813-20.186-45-45-45-24.813 0-45 20.187-45 45v130h30v-130c0-8.271 6.729-15 15-15s15 6.729 15 15v130c0 24.813 20.186 45 45 45s45-20.187 45-45v-65h-30z"/></g></svg>

<?xml version="1.0"?>
<svg xmlns="http://www.w3.org/2000/svg" xmlns:xlink="http://www.w3.org/1999/xlink" version="1.1" id="Capa_1" x="0px" y="0px" viewBox="0 0 460 460" style="enable-background:new 0 0 460 460;" xml:space="preserve" width="512px" height="512px"><g><g id="XMLID_494_">
	<path id="XMLID_518_" d="M230,0C139.019,0,65,74.019,65,165v130c0,90.981,74.019,165,165,165s165-74.019,165-165V165   C395,74.019,320.981,0,230,0z M365,295c0,74.44-60.56,135-135,135S95,369.44,95,295V165c0-74.439,60.561-135,135-135   s135,60.561,135,135V295z" data-original="#000000" class="active-path" data-old_color="#eceff1" fill="#eceff1"/>
	<path id="XMLID_521_" d="M155,165c0-15.219,4.553-29.879,13.168-42.396l-24.713-17.008C131.382,123.139,125,143.68,125,165v66h30   V165z" data-original="#000000" class="active-path" data-old_color="#eceff1" fill="#eceff1"/>
	<path id="XMLID_522_" d="M300.012,86.803c-7.042-6.31-14.888-11.64-23.32-15.841C262.093,63.688,246.384,60,230,60   c-22.382,0-43.76,6.975-61.825,20.171l17.696,24.225C198.764,94.978,214.023,90,230,90c11.699,0,22.907,2.629,33.313,7.813   c6.027,3.003,11.639,6.816,16.679,11.332C295.885,123.388,305,143.747,305,165v35h30v-35   C335,135.231,322.248,106.729,300.012,86.803z" data-original="#000000" class="active-path" data-old_color="#eceff1" fill="#eceff1"/>
	<path id="XMLID_523_" d="M269.006,358.822c-11.753,7.277-25.284,11.137-39.145,11.175C188.569,369.92,155,336.308,155,295v-35h-30   v35c0,57.782,46.917,104.809,104.655,104.996V400c0.049,0,0.097-0.002,0.145-0.002c0.067,0,0.133,0.002,0.199,0.002v-0.006   c19.398-0.063,38.339-5.474,54.799-15.667L269.006,358.822z" data-original="#000000" class="active-path" data-old_color="#eceff1" fill="#eceff1"/>
	<path id="XMLID_524_" d="M305,295c0,8.271-6.728,15-15,15s-15-6.729-15-15V165c0-24.813-20.186-45-45-45c-24.813,0-45,20.187-45,45   v130h30V165c0-8.271,6.729-15,15-15c8.271,0,15,6.729,15,15v130c0,24.813,20.186,45,45,45s45-20.187,45-45v-65h-30V295z" data-original="#000000" class="active-path" data-old_color="#eceff1" fill="#eceff1"/>
</g></g> </svg>
